X:9
T:Byrne's
Z: id:dc-hornpipe-8
M:C|
L:1/8
K:D Major
AG|FEFG AFDc|dA (3Bcd ecAg|fdge fdec|dA (3Bcd ecAG|!
FEFG AFDc|dA (3Bcd ecAg|fdge fdec|dfec d2:|!
cd|ecAc efge|afdf bgeg|afdf geaf|gefd ecAG|!
FEFG AFDc|dA (3Bcd ecAg|fdge fdec|dfec d2:|!

